assets/Mouth/Flat/mouth_flat.svg

<svg width="32" height="32" viewBox="0 0 32 32" fill="none" xmlns="http://www.w3.org/2000/svg">
<path d="M3.42688 18.2601C3.42688 18.2601 6.03688 15.1802 15.9269 14.5902C25.8169 14.0002 28.5669 18.3102 28.5669 18.3102C28.5669 18.3102 23.8769 21.6302 15.9669 21.8802C15.9669 21.8802 11.0169 22.6101 3.42688 18.2601Z" fill="#533566"/>
<path d="M15.9969 17.52C21.1552 17.52 25.3369 16.5619 25.3369 15.38C25.3369 14.1981 21.1552 13.24 15.9969 13.24C10.8385 13.24 6.65686 14.1981 6.65686 15.38C6.65686 16.5619 10.8385 17.52 15.9969 17.52Z" fill="#F4F4F4"/>
<path d="M26.3969 11.86L29.8869 17.35C30.0792 17.6566 30.0176 17.9983 29.82 18.2236L29.6468 18.5699C27.3768 23.1899 21.8268 27.8099 16.6768 27.8099H15.3268C10.1768 27.8099 4.62684 23.1799 2.32684 18.5699L2.12684 18.1699C2.11731 18.1509 2.10963 18.1316 2.10369 18.1124C1.97352 17.8931 1.95301 17.6068 2.11687 17.35L5.56687 11.93C5.80687 11.43 6.57687 10.39 6.57687 10.39C7.84687 8.92998 9.70687 8 11.7969 8C13.3769 8 14.8369 8.52998 15.9969 9.41998C17.1669 8.52998 18.6169 8 20.1969 8C22.2769 8 24.1469 8.92998 25.4169 10.39C25.4169 10.39 26.1769 11.41 26.3969 11.86ZM3.94878 18.0969L6.02684 18.7299C12.5168 20.6999 19.4468 20.6999 25.9468 18.7299L28.0302 18.0953L23.3269 16.5C18.5769 14.89 13.4169 14.89 8.65687 16.5L3.94878 18.0969Z" fill="#F92F60"/>
</svg>

<svg xmlns="http://www.w3.org/2000/svg" width="32" height="32" fill="none"><path fill="#533566" d="M3.427 18.26s2.61-3.08 12.5-3.67c9.89-.59 12.64 3.72 12.64 3.72s-4.69 3.32-12.6 3.57c0 0-4.95.73-12.54-3.62Z"/><path fill="#F4F4F4" d="M15.997 17.52c5.158 0 9.34-.958 9.34-2.14 0-1.182-4.182-2.14-9.34-2.14-5.159 0-9.34.958-9.34 2.14 0 1.182 4.181 2.14 9.34 2.14Z"/><path fill="#F92F60" d="m26.397 11.86 3.49 5.49a.72.72 0 0 1-.067.874l-.173.346c-2.27 4.62-7.82 9.24-12.97 9.24h-1.35c-5.15 0-10.7-4.63-13-9.24l-.2-.4a.377.377 0 0 1-.023-.058.715.715 0 0 1 .013-.762l3.45-5.42c.24-.5 1.01-1.54 1.01-1.54A6.894 6.894 0 0 1 11.797 8c1.58 0 3.04.53 4.2 1.42a6.905 6.905 0 0 1 9.42.97s.76 1.02.98 1.47ZM3.949 18.097l2.078.633a34.31 34.31 0 0 0 19.92 0l2.083-.635-4.703-1.595a22.882 22.882 0 0 0-14.67 0l-4.708 1.597Z"/></svg>
